material/.icons/material/camera-metering-spot.svg

<svg xmlns="http://www.w3.org/2000/svg" viewBox="0 0 24 24"><path d="M4 4h16a2 2 0 012 2v12a2 2 0 01-2 2H4a2 2 0 01-2-2V6a2 2 0 012-2m0 2v12h16V6H4m8 4.5a1.5 1.5 0 011.5 1.5 1.5 1.5 0 01-1.5 1.5 1.5 1.5 0 01-1.5-1.5 1.5 1.5 0 011.5-1.5z"/></svg>

<?xml version="1.0" encoding="UTF-8"?><!DOCTYPE svg PUBLIC "-//W3C//DTD SVG 1.1//EN" "http://www.w3.org/Graphics/SVG/1.1/DTD/svg11.dtd"><svg xmlns="http://www.w3.org/2000/svg" xmlns:xlink="http://www.w3.org/1999/xlink" version="1.1" id="mdi-camera-metering-spot" width="24" height="24" viewBox="0 0 24 24"><path d="M4,4H20A2,2 0 0,1 22,6V18A2,2 0 0,1 20,20H4A2,2 0 0,1 2,18V6A2,2 0 0,1 4,4M4,6V18H20V6H4M12,10.5A1.5,1.5 0 0,1 13.5,12A1.5,1.5 0 0,1 12,13.5A1.5,1.5 0 0,1 10.5,12A1.5,1.5 0 0,1 12,10.5Z" /></svg>
